images/icon/categories-icon/virtual.svg

<svg width="160" height="160" viewBox="0 0 160 160" fill="none" xmlns="http://www.w3.org/2000/svg">
<path d="M116.131 85.639V73.003C116.131 71.694 117.176 70.633 118.466 70.633L126.792 72.214V64.02C126.792 61.665 125.084 60.589 122.59 59.755L99.4034 53.175C101.019 54.566 101.292 55.215 101.292 57.571V102.78C101.292 105.136 100.842 106.846 99.3254 107.99L122.59 100.925C124.991 100.092 126.792 96.709 126.792 94.353V86.44L118.466 88.007C117.176 88.009 116.131 86.947 116.131 85.639Z" fill="#363636"/>
<path d="M127.129 73.979L119.531 72.535C118.523 72.535 117.707 73.364 117.707 74.386V84.254C117.707 85.277 118.523 86.106 119.531 86.106L127.129 84.675C128.283 84.256 128.953 83.846 128.953 82.823V75.83C128.953 74.808 128.187 74.323 127.129 73.979Z" fill="#363636"/>
<path d="M99.1704 57.483C99.1704 52.403 94.9384 53.024 94.9384 53.024C94.9384 53.024 37.8324 57.738 34.8384 58.145C31.8444 58.552 32.0014 62.532 32.0014 62.532C32.0014 62.532 32.0004 95.069 32.0004 98.812C32.0004 102.555 34.5994 102.565 34.5994 102.565L51.0764 103.968L59.2124 92.3C59.2124 92.3 60.3214 90.472 61.7174 90.472C63.1144 90.472 64.1494 92.333 64.1494 92.333L73.2104 105.854C73.2104 105.854 92.1054 107.763 95.7314 107.763C99.3574 107.762 99.1704 102.739 99.1704 102.739C99.1704 102.739 99.1704 62.563 99.1704 57.483ZM44.9824 90.192C41.2844 90.192 38.2864 85.591 38.2864 79.917C38.2864 74.243 41.2844 69.642 44.9824 69.642C48.6804 69.642 51.6784 74.243 51.6784 79.917C51.6784 85.591 48.6804 90.192 44.9824 90.192ZM81.1404 91.618C76.4784 91.618 72.6994 86.379 72.6994 79.917C72.6994 73.454 76.4794 68.215 81.1404 68.215C85.8024 68.215 89.5824 73.454 89.5824 79.917C89.5824 86.379 85.8024 91.618 81.1404 91.618Z" fill="#363636"/>
</svg>

<svg xmlns="http://www.w3.org/2000/svg" width="160" height="160" fill="none">
  <path fill="#363636" d="M116.131 85.639V73.003c0-1.309 1.045-2.37 2.335-2.37l8.326 1.581V64.02c0-2.355-1.708-3.431-4.202-4.265l-23.187-6.58c1.616 1.391 1.889 2.04 1.889 4.396v45.209c0 2.356-.45 4.066-1.967 5.21l23.265-7.065c2.401-.833 4.202-4.216 4.202-6.572V86.44l-8.326 1.567c-1.29.002-2.335-1.06-2.335-2.368Z"/>
  <path fill="#363636" d="m127.129 73.979-7.598-1.444c-1.008 0-1.824.829-1.824 1.851v9.868c0 1.023.816 1.852 1.824 1.852l7.598-1.431c1.154-.419 1.824-.829 1.824-1.852V75.83c0-1.022-.766-1.507-1.824-1.851ZM99.17 57.483c0-5.08-4.232-4.459-4.232-4.459s-57.106 4.714-60.1 5.121c-2.994.407-2.837 4.387-2.837 4.387v36.28c0 3.743 2.598 3.753 2.598 3.753l16.477 1.403L59.212 92.3s1.11-1.828 2.505-1.828c1.397 0 2.432 1.861 2.432 1.861l9.061 13.521s18.895 1.909 22.521 1.909c3.626-.001 3.44-5.024 3.44-5.024V57.483ZM44.982 90.192c-3.698 0-6.696-4.601-6.696-10.275s2.998-10.275 6.696-10.275c3.698 0 6.696 4.601 6.696 10.275s-2.998 10.275-6.696 10.275Zm36.158 1.426c-4.662 0-8.44-5.239-8.44-11.701 0-6.463 3.78-11.702 8.44-11.702 4.662 0 8.442 5.239 8.442 11.702 0 6.462-3.78 11.701-8.442 11.701Z"/>
</svg>
